X: 5259
T: Broken Torc, The
R: reel
M: 4/4
K: Amajor
|:AA A/A/A GA BG|Ac c/c/c Bc dB|ea a/a/a ge e/e/e|fc c/c/c eB B/B/B|BA A/A/A GA BG|Ac c/c/c Bc dB|ea a/a/a ge e/e/e|1 fc ec A2 AF:|2 fc ec A2 ce||
|:fc c/c/c fg af|eB B/B/B ef ge|fc c/c/c fg af|eg g/g/g fg g/g/g|fc c/c/c fg af|eB B/B/B ef ge|fc c/c/c eB B/B/B|1 cA Bc A2 ce:|2 cA Bc A4||

